src/assets/images/wp_icon.svg

<svg width="34" height="34" viewBox="0 0 34 34" fill="none" xmlns="http://www.w3.org/2000/svg">
<path d="M28.7501 5.18311C27.2221 3.63965 25.4021 2.41589 23.3961 1.58319C21.3902 0.750498 19.2386 0.325541 17.0667 0.333107C7.96675 0.333107 0.550082 7.74977 0.550082 16.8498C0.550082 19.7664 1.31675 22.5998 2.75008 25.0998L0.416748 33.6664L9.16675 31.3664C11.5834 32.6831 14.3001 33.3831 17.0667 33.3831C26.1667 33.3831 33.5834 25.9664 33.5834 16.8664C33.5834 12.4498 31.8667 8.29977 28.7501 5.18311ZM17.0667 30.5831C14.6001 30.5831 12.1834 29.9164 10.0667 28.6664L9.56675 28.3664L4.36675 29.7331L5.75008 24.6664L5.41675 24.1498C4.04632 21.9614 3.31865 19.4318 3.31675 16.8498C3.31675 9.28311 9.48341 3.11644 17.0501 3.11644C20.7167 3.11644 24.1667 4.54977 26.7501 7.14977C28.0292 8.42305 29.0429 9.93754 29.7324 11.6055C30.4219 13.2734 30.7735 15.0616 30.7667 16.8664C30.8001 24.4331 24.6334 30.5831 17.0667 30.5831ZM24.6001 20.3164C24.1834 20.1164 22.1501 19.1164 21.7834 18.9664C21.4001 18.8331 21.1334 18.7664 20.8501 19.1664C20.5667 19.5831 19.7834 20.5164 19.5501 20.7831C19.3167 21.0664 19.0667 21.0998 18.6501 20.8831C18.2334 20.6831 16.9001 20.2331 15.3334 18.8331C14.1001 17.7331 13.2834 16.3831 13.0334 15.9664C12.8001 15.5498 13.0001 15.3331 13.2167 15.1164C13.4001 14.9331 13.6334 14.6331 13.8334 14.3998C14.0334 14.1664 14.1167 13.9831 14.2501 13.7164C14.3834 13.4331 14.3167 13.1998 14.2167 12.9998C14.1167 12.7998 13.2834 10.7664 12.9501 9.93311C12.6167 9.13311 12.2667 9.23311 12.0167 9.21644H11.2167C10.9334 9.21644 10.5001 9.31644 10.1167 9.73311C9.75008 10.1498 8.68341 11.1498 8.68341 13.1831C8.68341 15.2164 10.1667 17.1831 10.3667 17.4498C10.5667 17.7331 13.2834 21.8998 17.4167 23.6831C18.4001 24.1164 19.1667 24.3664 19.7667 24.5498C20.7501 24.8664 21.6501 24.8164 22.3667 24.7164C23.1667 24.5998 24.8167 23.7164 25.1501 22.7498C25.5001 21.7831 25.5001 20.9664 25.3834 20.7831C25.2667 20.5998 25.0167 20.5164 24.6001 20.3164Z" fill="black"/>
</svg>

<svg xmlns="http://www.w3.org/2000/svg" width="34" height="34" fill="none"><path fill="#000" d="M28.75 5.183A16.36 16.36 0 0 0 17.067.333C7.967.333.55 7.75.55 16.85c0 2.916.767 5.75 2.2 8.25L.417 33.666l8.75-2.3a16.52 16.52 0 0 0 7.9 2.017c9.1 0 16.516-7.417 16.516-16.517 0-4.416-1.716-8.566-4.833-11.683Zm-11.683 25.4a13.77 13.77 0 0 1-7-1.917l-.5-.3-5.2 1.367 1.383-5.067-.333-.516a13.773 13.773 0 0 1-2.1-7.3c0-7.567 6.166-13.734 13.733-13.734 3.667 0 7.117 1.434 9.7 4.034a13.639 13.639 0 0 1 4.017 9.716c.033 7.567-6.134 13.717-13.7 13.717ZM24.6 20.316c-.417-.2-2.45-1.2-2.817-1.35-.383-.133-.65-.2-.933.2-.283.417-1.067 1.35-1.3 1.617-.233.283-.483.317-.9.1-.417-.2-1.75-.65-3.317-2.05-1.233-1.1-2.05-2.45-2.3-2.867-.233-.416-.033-.633.184-.85.183-.183.416-.483.616-.716.2-.234.284-.417.417-.684.133-.283.067-.516-.033-.716-.1-.2-.934-2.234-1.267-3.067-.333-.8-.683-.7-.933-.717h-.8c-.284 0-.717.1-1.1.517-.367.417-1.434 1.417-1.434 3.45 0 2.033 1.484 4 1.684 4.267.2.283 2.916 4.45 7.05 6.233.983.433 1.75.683 2.35.867.983.316 1.883.266 2.6.166.8-.116 2.45-1 2.783-1.966.35-.967.35-1.784.233-1.967-.116-.183-.366-.267-.783-.467Z"/></svg>
